static/fa/svgs/regular/face-kiss-beam.svg

<svg xmlns="http://www.w3.org/2000/svg" viewBox="0 0 512 512"><!--! Font Awesome Free 6.1.1 by @fontawesome - https://fontawesome.com License - https://fontawesome.com/license/free (Icons: CC BY 4.0, Fonts: SIL OFL 1.1, Code: MIT License) Copyright 2022 Fonticons, Inc.--><path d="M304.7 297.7c4.2 5.1 7.3 11.4 7.3 18.3s-3.1 13.2-7.3 18.3c-4.3 5.2-10.2 9.7-16.8 13.4-2.7 1.6-5.6 3-8.7 4.3 3.1 1.3 6 2.7 8.7 4.3 6.6 2.8 12.5 8.2 16.8 13.4 4.2 5.1 7.3 11.4 7.3 18.3s-3.1 13.2-7.3 18.3c-4.3 5.2-10.2 9.7-16.8 13.4-13.2 7.4-30.5 12.3-47.9 12.3-3.6 0-6.8-2.5-7.7-6-1-3.5.6-7.2 3.8-9l.2-.1c.2-.1.5-.3.9-.6.8-.4 2-1.2 3.4-2.1 2.8-1.8 6.6-4.5 10.2-7.6 3.8-3.1 7.2-6.6 9.7-10 1.6-3.6 3.5-6.4 3.5-8.6 0-2.2-1.9-5.9-3.5-8.6-2.5-4.3-5.9-6.9-9.7-10-3.6-3.1-7.4-5.8-10.2-7.6-1.4-.9-2.6-1.7-3.4-2.1-.4-.3-.7-.5-.9-.6l-.2-1c-2.5-.5-4.1-3.2-4.1-6.1 0-2.9 1.6-5.6 4.1-7l.2-.1c.2-.1.5-.3.9-.6.8-.4 2-1.2 3.4-2.1 2.8-1.8 6.6-4.5 10.2-7.6 3.8-3.1 7.2-6.5 9.7-10 1.6-3.6 3.5-6.4 3.5-8.6 0-2.2-1.9-5.9-3.5-8.6-2.5-4.3-5.9-6.9-9.7-10-3.6-3.1-7.4-5.8-10.2-7.6-1.4-.9-2.6-1.7-3.4-2.1-.4-.3-.7-.5-.9-.6l-.2-1c-3.2-.9-4.8-4.6-3.8-9 .9-2.6 4.1-5.1 7.7-5.1 17.4 0 34.7 4.9 47.9 12.3 6.6 2.8 12.5 8.2 16.8 13.4zm-87.1-68.9-.2-.3c-.2-.2-.4-.5-.7-.9-.7-.8-1.6-1.9-2.8-3.3-2.5-2.9-6-6.6-10.2-11.2-8.8-6.9-18.9-13.1-27.7-13.1s-18.9 6.2-27.7 13.1c-4.2 4.6-7.7 8.3-10.2 11.2-1.2 1.4-3 2.5-2.8 3.3-1.2.4-.5.7-.7.9l-.2.3c-2.1 2.8-5.7 3.9-8.9 2.8-3.3-1.1-5.5-4.2-5.5-7.6 0-17.9 6.7-35.6 16.6-48.8 9.8-13 23.9-23.2 39.4-23.2s29.6 10.2 39.4 23.2c9.9 13.2 16.6 30.9 16.6 48.8 0 3.4-2.2 6.5-5.5 7.6-3.2 1.1-6.8 0-8.9-2.8zm160 0-.2-.3c-.2-.2-.4-.5-.7-.9-.7-.8-1.6-1.9-2.8-3.3-2.5-2.9-6-6.6-10.2-11.2-8.8-6.9-18.9-13.1-27.7-13.1s-18.9 6.2-27.7 13.1c-4.2 4.6-7.7 8.3-10.2 11.2-1.2 1.4-3 2.5-2.8 3.3-1.2.4-.5.7-.7.9l-.2.3c-2.1 2.8-5.7 3.9-8.9 2.8-3.3-1.1-5.5-4.2-5.5-7.6 0-17.9 6.7-35.6 16.6-48.8 9.8-13 23.9-23.2 39.4-23.2s29.6 10.2 39.4 23.2c9.9 13.2 16.6 30.9 16.6 48.8 0 3.4-2.2 6.5-5.5 7.6-3.2 1.1-6.8 0-8.9-2.8zM512 256c0 141.4-114.6 256-256 256S0 397.4 0 256 114.6 0 256 0s256 114.6 256 256zM256 48C141.1 48 48 141.1 48 256s93.1 208 208 208 208-93.1 208-208S370.9 48 256 48z"/></svg>

<svg xmlns="http://www.w3.org/2000/svg" viewBox="0 0 512 512"><!--! Font Awesome Free 6.1.1 by @fontawesome - https://fontawesome.com License - https://fontawesome.com/license/free (Icons: CC BY 4.0, Fonts: SIL OFL 1.1, Code: MIT License) Copyright 2022 Fonticons, Inc. --><path d="M304.7 297.7C308.9 302.8 312 309.1 312 316C312 322.9 308.9 329.2 304.7 334.3C300.4 339.5 294.5 344 287.9 347.7C285.2 349.3 282.3 350.7 279.2 352C282.3 353.3 285.2 354.7 287.9 356.3C294.5 359.1 300.4 364.5 304.7 369.7C308.9 374.8 312 381.1 312 388C312 394.9 308.9 401.2 304.7 406.3C300.4 411.5 294.5 416 287.9 419.7C274.7 427.1 257.4 432 240 432C236.4 432 233.2 429.5 232.3 426C231.3 422.5 232.9 418.8 236.1 417L236.1 417L236.3 416.9C236.5 416.8 236.8 416.6 237.2 416.3C238 415.9 239.2 415.1 240.6 414.2C243.4 412.4 247.2 409.7 250.8 406.6C254.6 403.5 258 400 260.5 396.6C262.1 393 264 390.2 264 388C264 385.8 262.1 382.1 260.5 379.4C258 375.1 254.6 372.5 250.8 369.4C247.2 366.3 243.4 363.6 240.6 361.8C239.2 360.9 238 360.1 237.2 359.7C236.8 359.4 236.5 359.2 236.3 359.1L236.1 358.1L236.1 358.1C233.6 357.6 232 354.9 232 352C232 349.1 233.6 346.4 236.1 345L236.1 345L236.3 344.9C236.5 344.8 236.8 344.6 237.2 344.3C238 343.9 239.2 343.1 240.6 342.2C243.4 340.4 247.2 337.7 250.8 334.6C254.6 331.5 258 328.1 260.5 324.6C262.1 321 264 318.2 264 316C264 313.8 262.1 310.1 260.5 307.4C258 303.1 254.6 300.5 250.8 297.4C247.2 294.3 243.4 291.6 240.6 289.8C239.2 288.9 238 288.1 237.2 287.7C236.8 287.4 236.5 287.2 236.3 287.1L236.1 286.1L236.1 286.1C232.9 285.2 231.3 281.5 232.3 277.1C233.2 274.5 236.4 272 240 272C257.4 272 274.7 276.9 287.9 284.3C294.5 287.1 300.4 292.5 304.7 297.7L304.7 297.7zM217.6 228.8L217.6 228.8L217.4 228.5C217.2 228.3 217 228 216.7 227.6C216 226.8 215.1 225.7 213.9 224.3C211.4 221.4 207.9 217.7 203.7 213.1C194.9 206.2 184.8 200 176 200C167.2 200 157.1 206.2 148.3 213.1C144.1 217.7 140.6 221.4 138.1 224.3C136.9 225.7 135.1 226.8 135.3 227.6C134.1 228 134.8 228.3 134.6 228.5L134.4 228.8L134.4 228.8C132.3 231.6 128.7 232.7 125.5 231.6C122.2 230.5 120 227.4 120 224C120 206.1 126.7 188.4 136.6 175.2C146.4 162.2 160.5 152 176 152C191.5 152 205.6 162.2 215.4 175.2C225.3 188.4 232 206.1 232 224C232 227.4 229.8 230.5 226.5 231.6C223.3 232.7 219.7 231.6 217.6 228.8V228.8zM377.6 228.8L377.4 228.5C377.2 228.3 377 228 376.7 227.6C376 226.8 375.1 225.7 373.9 224.3C371.4 221.4 367.9 217.7 363.7 213.1C354.9 206.2 344.8 200 336 200C327.2 200 317.1 206.2 308.3 213.1C304.1 217.7 300.6 221.4 298.1 224.3C296.9 225.7 295.1 226.8 295.3 227.6C294.1 228 294.8 228.3 294.6 228.5L294.4 228.8L294.4 228.8C292.3 231.6 288.7 232.7 285.5 231.6C282.2 230.5 280 227.4 280 224C280 206.1 286.7 188.4 296.6 175.2C306.4 162.2 320.5 152 336 152C351.5 152 365.6 162.2 375.4 175.2C385.3 188.4 392 206.1 392 224C392 227.4 389.8 230.5 386.5 231.6C383.3 232.7 379.7 231.6 377.6 228.8L377.6 228.8zM512 256C512 397.4 397.4 512 256 512C114.6 512 0 397.4 0 256C0 114.6 114.6 0 256 0C397.4 0 512 114.6 512 256zM256 48C141.1 48 48 141.1 48 256C48 370.9 141.1 464 256 464C370.9 464 464 370.9 464 256C464 141.1 370.9 48 256 48z"/></svg>
